X: 1725
T: Moonwinks Polka Mazurka
B: australian traditional tunes wiki
M:3/4
L:1/8
R: Mazurka
Q: 1/4=100
K:G
V:1 
|"G"D>E F>G A>G|"D7"F2c4|D>E F>G A>^A|"G"B6|"E7"B>B ^A>B c>B|"A"A2E4|"A7"E>F G>E F>G|"D7"A6|
"G"D>E F>G A>G|"D7"F2c4|D>E F>G A>^A|"G"B6|"E7"B>B ^A>B c>B|"A"A2E4|"D7"F>E D>c E>F|"G"G2g2z2||
"G"B>BA2G2|"D7"G2F2F2|c>cd2c2|"G"B4z2|"E7"B>Bc2B2|"A7"BzA4|"D7"GzF4|"D7"EzD4|
"G"B>BA2G2|"D7"G2F2F2|c>cd2c2|"G"B4z2|"E7"B>Bc2B2|"A7"BzA4|"D7"EzD4|"G"G2[G2g2]z2||
% abcbook-tune_id 6342d53a0741d87786cc301a


% abcbook-boost 0
% abcbook-tablature 
% abcbook-transpose 
% abcbook-lastupdated 1665324380246
% abcbook-soundfonts 
% abcbook-repeats 1
% NFF Book 2017

